X: 7411
T: Clogger's Quilt, The
R: reel
M: 4/4
K: Gmajor
d2 eB dBAG|EAAG (3ABA GB|d2 eB dBAG|EGGF GABc|
dgeB dBAG|EAAG (3ABA GB|d2 eB dBAG|EGGF G2 ef||
(3gag fg edBd|eaag agef|g2 ag edBd|egfa g2 ef|
(3gag fg edBd|eaag agef|g2 ag edBd|egfa gfeB||

